X: 33839
T: Reconciliation, The
R: reel
M: 4/4
K: Amajor
|:A2c/B/A eAfA|aAfA aAfA|A2c/B/A eAfA|ecBc AFEF|
A2c/B/A eA fA|aAfA aAfA|ABAF Ecdf|ecBc A2cB:|
|:A/A/A ce a3f|efed cdcB|A/A/A ce a2ag|fb/b/ba gbeg|
agae faec|dBcA BAFG|ABAF Ecdf|ecBc A2cB:|

